X: 21531
T: Kilcooley Wood
R: hornpipe
M: 4/4
K: Gmajor
(3GFE|:DGGA BGcG|BGAF GABc|dg~g2 fgag|fdcA BGAF|
DGGA BGcG|BGAF GABc|dg~g2 fdcA|1 (3Bcd AF G2GE:|2 (3Bcd AF G2Bc||
dg~g2 fgaf|dgga bgaf|defg abag|fdcA BGAF|
DGGA BGcG|BGAF GABc|dg~g2 fdcA|1 (3Bcd AF GABc:|2 (3Bcd AF G2||

